public/formular-icons/numbers/1.svg

<svg style="vertical-align:0" xmlns="http://www.w3.org/2000/svg" width="1.131ex" height="1.507ex" viewBox="0 -666 500 666" xmlns:xlink="http://www.w3.org/1999/xlink"><defs><path id="a" d="m213 578-13-5q-14-5-40-10t-58-7H83v46h19q47 2 87 15t56 24 28 22q2 3 12 3 9 0 17-6V361l1-300q7-7 12-9t24-4 62-2h26V0h-11q-21 3-159 3-136 0-157-3H88v46h64q16 0 25 1t16 3 8 2 6 5 6 4v517Z"/></defs><g stroke="currentColor" fill="currentColor" stroke-width="0"><use data-c="31" xlink:href="#a" transform="scale(1 -1)"/></g></svg>

<svg style="vertical-align: 0" xmlns="http://www.w3.org/2000/svg" width="1.131ex" height="1.507ex" role="img" focusable="false" viewBox="0 -666 500 666" xmlns:xlink="http://www.w3.org/1999/xlink"><defs><path id="MJX-23-TEX-N-31" d="M213 578L200 573Q186 568 160 563T102 556H83V602H102Q149 604 189 617T245 641T273 663Q275 666 285 666Q294 666 302 660V361L303 61Q310 54 315 52T339 48T401 46H427V0H416Q395 3 257 3Q121 3 100 0H88V46H114Q136 46 152 46T177 47T193 50T201 52T207 57T213 61V578Z"></path></defs><g stroke="currentColor" fill="currentColor" stroke-width="0" transform="scale(1,-1)"><g data-mml-node="math"><g data-mml-node="mn"><use data-c="31" xlink:href="#MJX-23-TEX-N-31"></use></g></g></g></svg>
